svgs/cco/file-video.svg

<svg xmlns="http://www.w3.org/2000/svg" viewBox="0 0 16 16" class="symbol symbol-file-video" aria-labelledby="title" role="img"><title id="title">file-video icon</title><g data-name="Layer 1"><path class="cls-1" d="M9.845 0H2.35a.8.8 0 0 0-.8.8v14.4a.8.8 0 0 0 .8.8h11.3a.8.8 0 0 0 .8-.8V4.15zm2.564 4.155l-2.453.007a.118.118 0 0 1-.118-.118V1.85zm.7 10.5H2.9V1.35h5.6v2.691a1.468 1.468 0 0 0 1.46 1.471L13.1 5.5z" role="presentation"/><path class="cls-1" d="M7.778 13.147a3.483 3.483 0 1 1 3.482-3.483 3.492 3.492 0 0 1-3.482 3.483zm0-6.179a2.7 2.7 0 1 0 2.7 2.7 2.688 2.688 0 0 0-2.7-2.701z" role="presentation"/><path class="cls-1" d="M9.267 9.431L7.055 7.906a.284.284 0 0 0-.445.234v3.047a.284.284 0 0 0 .445.234L9.267 9.9a.284.284 0 0 0 0-.469zm-2.007 1.06V8.837l1.2.827z" role="presentation"/></g></svg>

<svg xmlns="http://www.w3.org/2000/svg" viewBox="0 0 16 16" aria-labelledby="title" role="img" class="symbol symbol-file-video"><title id="title">file-video icon</title><g id="Layer_1" data-name="Layer 1"><path d="M9.84,0H2.35a.8.8,0,0,0-.8.8V15.2a.8.8,0,0,0,.8.8h11.3a.8.8,0,0,0,.8-.8v-11Zm2.56,4.16H10A.12.12,0,0,1,9.84,4V1.85Zm.7,10.5H2.9V1.35h5.6V4A1.47,1.47,0,0,0,10,5.51H13.1Z" style="fill:#020202" role="presentation"/><path d="M7.78,13.15a3.48,3.48,0,1,1,3.48-3.48A3.49,3.49,0,0,1,7.78,13.15ZM7.78,7a2.7,2.7,0,1,0,2.7,2.7A2.69,2.69,0,0,0,7.78,7Z" style="fill:#020202" role="presentation"/><path d="M9.27,9.43,7.05,7.91a.28.28,0,0,0-.44.23v3a.28.28,0,0,0,.44.23L9.27,9.9A.28.28,0,0,0,9.27,9.43Zm-2,1.06V8.84l1.2.83Z" style="fill:#020202" role="presentation"/></g></svg>
